tools/download-figma-icons/icons/action/arrow-left.svg

<svg width="24" height="24" viewBox="0 0 24 24" fill="none" xmlns="http://www.w3.org/2000/svg">
<path fill-rule="evenodd" clip-rule="evenodd" d="M3.00087 11.5669C3.00087 11.5684 3.00087 11.5699 3.00087 11.5721C3.00087 11.5729 3.00012 11.5736 3.00012 11.5744C3.00087 11.7176 3.03086 11.8541 3.07961 11.9809C3.08187 11.9869 3.08337 11.9921 3.08562 11.9981C3.14262 12.1384 3.22737 12.2644 3.33237 12.3686L9.17111 18.2074C9.61061 18.6469 10.3224 18.6469 10.7619 18.2074C11.2014 17.7686 11.2014 17.0561 10.7619 16.6166L6.83187 12.6866L20.0611 12.6446C20.6821 12.6424 21.1846 12.1369 21.1824 11.5159C21.1809 10.8949 20.6769 10.3946 20.0574 10.3946H20.0536L6.84986 10.4366L10.8654 6.42111C11.3049 5.98161 11.3049 5.26986 10.8654 4.83036C10.6456 4.61061 10.3584 4.50036 10.0704 4.50036C9.78236 4.50036 9.49437 4.61061 9.27462 4.83036L3.32936 10.7749L3.32862 10.7764C3.22511 10.8806 3.14186 11.0051 3.08487 11.1439C3.08261 11.1484 3.08187 11.1536 3.08037 11.1589C3.03012 11.2856 3.00162 11.4229 3.00087 11.5669Z" fill="black"/>
</svg>

<svg xmlns="http://www.w3.org/2000/svg" width="24" height="24" fill="none" viewBox="0 0 24 24"><path fill="currentColor" fill-rule="evenodd" d="M3 11.567v.007c0 .144.03.28.08.407l.006.017q.087.212.246.37l5.84 5.84a1.124 1.124 0 1 0 1.59-1.591l-3.93-3.93 13.23-.042a1.125 1.125 0 0 0-.005-2.25h-.003l-13.204.042 4.015-4.016a1.124 1.124 0 1 0-1.59-1.59l-5.946 5.944v.001a1.1 1.1 0 0 0-.244.368l-.005.015a1.1 1.1 0 0 0-.08.408" clip-rule="evenodd"/></svg>
